//@author: vux
//@help: template for texture fx
//@tags: texture
//@credits: 

Texture2D texture2d : PREVIOUS;

SamplerState linearSampler : IMMUTABLE
{
    Filter = MIN_MAG_MIP_LINEAR;
    AddressU = Clamp;
    AddressV = Clamp;
};
float Threshold = 0.2;

struct psInput
{
	float4 p : SV_Position;
	float2 uv : TEXCOORD0;
};


float4 PS(psInput input) : SV_Target
{
	float4 c = texture2d.Sample(linearSampler,input.uv);
	if(c.r < Threshold ){
		c = float4(1,1,1,1);
	}
	return c;
}

technique10 Process
{
	pass P0
	{
		SetPixelShader(CompileShader(ps_4_0,PS()));
	}
}



